X:1
T:La meunière de Vernon
T:La meunière de Vernon
T:Clément Janequin
T:A4 (8,26389 x 11,6875)
C:Clément Janequin
Z:A4 (8,26389 x 11,6875)
%%score [ 1 2 3 4 ]
L:1/8
Q:1/4=100
M:2/4
K:C
V:1 treble nm="Soprano" snm="S"
V:2 treble nm="Alto" snm="A"
V:3 treble-8 nm="Tenor" snm="T"
V:4 bass nm="Bass" snm="B"
V:1
 FA AG | AA AA/A/ | A/A/G/F/ E2 | z C DD | C2 FF | FF A2- | AA A2 | G2 z2 | GG GG | G/F/G/A/ Bc | %10
w: La meu- niè- re|de Ver- non, ti- re|ti- re ti- re ton|don don don|don, Elle est|mi- gnonne et|_ gor- riè-|re|elle est mi- gnonne|et _ _ _ _ gor-|
 A2 F2 | FA AG | AA AA/A/ | A/A/G/F/ E2 | z C DD | C2 FF | FF A2- | AA A2 | G2 z2 | Bc de | d3 c | %21
w: riè- re,|Et si elle est,|ce dit on, ti- re|ti- re ti- re ton|don don don|don De bien|ai- mer cou-|* tu- miè-|re|de bien ai- mer|cou- tu-|
 d2 A2 | Ad cB | cd cB/c/ | d/c/B/A/ GF/G/ | A/G/F/E/ D2 | EE D2 | AA AA | d3 c | B2 G2 | GG GG | %31
w: miè- re.|Un jour tout à|l'en- vi- ron, ti- re|ti- re ti- re ton, ti- re|ti- re ti- re ton,|don don don,|d'u- ne saus- saie|et ri-|viè- re,|d'u- ne saus- saie|
 G/F/G/A/ Bc | A2 F2 | FA AG | AA AA/A/ | A/A/G/F/ E2 | z C DD | C2 FF | FF A2- | AA A2 | G2 z2 | %41
w: et _ _ _ _ ri-|viè- re.|Un beau jeu- ne|com- pa- gnon, ti- re|ti- re ti- re ton|don don don|don, D'a- mour|lui fit la|_ pri- è-|re|
 Bc de | d3 c | d2 A2 | Ad cB | cd cB/c/ | d/c/B/A/ GF/G/ | A/G/F/E/ D2 | EE D2 | AA AA | d3 c | %51
w: d'a- mour lui fit|la pri-|è- re|Lors la bai- sant|le mi- gnon, ti- re|ti- re ti- re ton, ti- re|ti- re ti- re ton,|don don don,|Se prit à lui|fai- re|
 B2 G2 | GG GG | G3 c | A2 F2 | FA AG | AA AA/A/ | A/A/G/F/ E2 | z C DD | C2 FF | EE A2- | AG F2 | %62
w: chè- re,|se prit à lui|fai- re|chè- re|Puis s'as- sit en|son gi- ron, ti- re|ti- re ti- re ton,|don don don|don, De bon-|ne grâce et|_ ma- niè-|
 E2 EE | EE A2- | AG F2 | E2 BB | cc cc | A2 G2- | G^F F2 | G4- | G4 |] %71
w: re, de bon-|ne grâce et|_ ma- niè-|re, de bon-|ne grâce et ma-|niè- *||re.|_|
V:2
 DF EE | EF EE/E/ | F/E/D/C/ B,A,/B,/ | C/B,/A,/G,/ F,2 | A,A, A,2 | DD CC | F3 E | D2 E2 | DE DC | %9
w: La meu- niè- re|de Ver- non, ti- re|ti- re ti- re ton, ti- re|ti- re ti- re ton,|don don don,|Elle est mi- gnonne|et gor-|riè- re,|elle est mi- gnonne|
 B,/A,/B,/C/ B,E | F2 D2 | DF FD | FF EE/E/ | F/E/D/C/ B,A,/B,/ | C/B,/A,/G,/ F,2 | A,A, A,2 | %16
w: et _ _ _ _ gor-|riè- re,|Et si elle est,|ce dit on, ti- re|ti- re ti- re ton, ti- re|ti- re ti- re ton,|don don don,|
 DD CC | F3 E | D2 E2 | DE DG | F3 E | D2 C2 | FF EE | EF EE/E/ | FD EE/E/ | E/D/C/B,/ A,2 | %26
w: De bien ai- mer|cou- tu-|miè- re,|de bien ai- mer|cou- tu-|miè- re.|Un jour tout à|l'en- vi- ron, ti- re,|ti- re ton, ti- re|ti- re ti- re ton,|
 CC B,2 | CC CC | F3 C | D2 E2 | DE DC | B,/A,/B,/C/ B,E | F2 D2 | DF FD | FF EE/E/ | %35
w: don don don,|d'u- ne saus- saie|et ri-|viè- re,|d'u- ne saus- saie|et _ _ _ _ ri-|viè- re.|Un beau jeu- ne|com- pa- gnon, ti- re|
 F/E/D/C/ B,A,/B,/ | C/B,/A,/G,/ F,2 | A,A, A,2 | DD CC | F3 E | D2 E2 | DE DG | F3 E | D2 C2 | %44
w: ti- re ti- re ton, ti- re|ti- re ti- re ton|don don don,|D'a- mour lui fit|la pri-|è- re,|d'a- mour lui fit|la pri-|è- re|
 FF EE | EF EE/E/ | FD EE/E/ | E/D/C/B,/ A,2 | CC B,2 | CC CC | F3 C | D2 E2 | DE DC | B,3 E | %54
w: Lors la bai- sant|le mi- gnon, ti- re|ti- re ton, ti- re|ti- re ti- re ton,|don don don,|Se prit à lui|fai- re|chè- re,|se prit à lui|fai- re|
 F2 D2 | DF FD | FF EE/E/ | F/E/D/C/ B,2 | CC F,2 | A,A, A,A, | C3 C | B,2 A,2 | G,G, G,G, | C3 C | %64
w: chè- re|Puis s'as- sit en|son gi- ron, ti- re|ti- re ti- re ton,|don don don,|De bon- ne grâce|et ma-|niè- re,|de bon- ne grâce|et ma-|
 B,A,/G,/ A,2 | G,2 z2 | GG GG | F2 E2 | D4 | D4- | D4 |] %71
w: niè- * * *|re,|de bon- ne grâce|et ma-|niè-|re.|_|
V:3
 Ad cB | cd cB/c/ | d/c/B/A/ GF/G/ | A/G/F/E/ D2 | EE D2 | AA AA | d3 c | B2 G2 | Bc de | d3 c | %10
w: La meu- niè- re|de Ver- non, ti- re-|ti- re ti- re ton, ti- re|ti- re ti- re ton,|don don don,|Elle est mi- gnonne|et gor-|riè- re,|elle est mi- gnonne|et gor-|
 d2 A2 | Ad cB | cd cB/c/ | d/c/B/A/ GF/G/ | A/G/F/E/ D2 | EE D2 | AA AA | d3 c | B2 G2 | Gc Bc | %20
w: riè- re,|Et si elle est,|ce dit on, ti- re|ti- re ti- re ton, ti- re|ti- re ti- re ton,|don don don,|De bien ai- mer|cou- tu-|miè- re,|de bien ai- mer|
 d3 A | _B2 F2 | DD AG | AA A2- | A2 B/B/A/B/ | c/B/A/G/ F2 | GG G2 | FF FF | D3 A | G2 c2 | %30
w: cou- tu-|miè- re.|Un jour tout à|l'en- vi- ron|_ ti- re ti- re|ti- re ti- re ton,|don don don|d'u- ne saus- saie|et ri-|viè- re,|
 Bc de | d3 c | d2 A2 | Ad cB | cd cB/c/ | d/c/B/A/ GF/G/ | A/G/F/E/ D2 | EE D2 | AA AA | d3 c | %40
w: d'u- ne suas- saie|et ri-|viè- re|Un beau jeu- ne|com- pa- gnon, ti- re|ti- re ti- re ton, ti- re|ti- re ti- re ton,|don don don,|D'a- mour lui fit|la pri-|
 B2 G2 | Gc Bc | d3 A | _B2 F2 | DD AG | AA A2- | A2 B/B/A/B/ | c/B/A/G/ F2 | GG G2 | FF FF | %50
w: è- re,|d'a- mour lui fit|la pri-|è- re|Lors la bai- sant|le mi- gnon,|_ ti- re ti- re|ti- re ti- re ton,|don don don,|Se prit à lui|
 D3 A | G2 c2 | Bc de | d3 c | d2 A2 | Ad cB | cd cB/c/ | d/c/B/A/ GF/G/ | A/G/F/E/ D2 | EE D2 | %60
w: fai- re|chè- re,|se prit à lui|fai- re|chè- re|Puis s'as- sit en|son gi- ron, ti- re|ti- re ti- re ton, ti- re|ti- re ti- re ton,|don don don,|
 AA AA | d3 c | B2 B2 | AA AA | d3 c | B2 G2 | z2 cc | cc BB | A4 | G4- | G4 |] %71
w: De bon- ne grâce|et ma-|niè- re,|de bon- ne grâce|et ma-|niè- re,|de bon-|ne grâce et ma-|niè-|re.|_|
V:4
 D,D, A,E, | A,D, A,,2 | D,2 E,2 | A,,2 _B,,B,, | A,,2 D,D, | D,D, F,2- | F,E, D,E,/F,/ | G,2 C,2 | %8
w: La meu- niè- re|de Ver- non,|don don|don don don|don, Elle est|mi- gnonn et|_ gor- riè- * *|* re,|
 G,C, G,C, | G,3 A, | D,2 D,2 | D,D, F,G, | F,D, A,2 | D,2 E,2 | A,,2 _B,,B,, | A,,2 D,D, | %16
w: elle est mi- gnonne|et gor-|riè- re,|Et si elle est,|ce dit on,|don don|don don don|don De bien|
 D,D, F,2- | F,E, D,/E,/F, | G,2 C,2 | z4 | z4 | z4 | z4 | A,,D, A,,A,, | D,F, E,2 | A,,2 D,2 | %26
w: ai- mer cou-|* tu- miè- * *|* re.|||||Un jour tout à|l'en- vi- ron,|don don|
 C,C, G,,2 | z4 | z4 | z4 | G,C, G,C, | G,3 A, | D,2 D,2 | D,D, F,G, | F,D, A,2 | D,2 E,2 | %36
w: don don don||||D'u- ne saus- saie|et ri-|viè- re.|Un beau jeu- ne|com- pa- gnon,|don don|
 A,,2 _B,,B,, | A,,2 D,D, | D,D, F,2- | F,E, D,E,/F,/ | G,2 C,2 | z4 | z4 | z4 | z4 | %45
w: don don don|don, D'a- mour|lui fit la|_ pri- è- * *|* re.|||||
 A,,D, A,,A,, | D,F, E,2 | A,,2 D,2 | C,C, G,,2 | z4 | z4 | z4 | G,C, G,C, | G,3 A, | D,2 D,2 | %55
w: Lors la bai- sant|le mi- gnon,|don don|don don don||||Se prit à lui|fai- re|chè- re|
 D,D, F,G, | F,D, A,2 | D,2 E,2 | A,,2 _B,,B,, | A,,2 z2 | z4 | D,D, D,D, | E,3 E, | A,2 F,2 | %64
w: Puis s'as- sit en|son gi- ron|don don|don don don|don||De bon- ne grâce|et ma-|niè- re,|
 D,D, D,D, | E,3 D, | C,3 D,/E,/ | F,2 G,2 | D,4 | G,,4- | G,,4 |] %71
w: de bon- ne grâce|et ma-|niè- * *|||re.|_|

